svgs/sharp-duotone-solid/game-board.svg

<svg xmlns="http://www.w3.org/2000/svg" viewBox="0 0 448 512"><!--! Font Awesome Pro 7.1.0 by @fontawesome - https://fontawesome.com License - https://fontawesome.com/license (Commercial License) Copyright 2025 Fonticons, Inc. --><path opacity=".4" fill="currentColor" d="M0 32l0 448 448 0 0-448-448 0zM64 96l320 0 0 320-320 0 0-320z"/><path fill="currentColor" d="M64 256l0 80 80 0 0-80-80 0zM384 416l0-80-80 0 0 80 80 0zm-240 0l80 0 0-80-80 0 0 80zM64 96l0 80 80 0 0-80-80 0zm160 80l-80 0 0 80 80 0 0-80zm0 80l0 80 80 0 0-80-80 0zm160 0l0-80-80 0 0 80 80 0zM304 96l-80 0 0 80 80 0 0-80z"/></svg>

<svg xmlns="http://www.w3.org/2000/svg" viewBox="0 0 448 512"><!--! Font Awesome Pro 6.7.2 by @fontawesome - https://fontawesome.com License - https://fontawesome.com/license (Commercial License) Copyright 2024 Fonticons, Inc. --><defs><style>.fa-secondary{opacity:.4}</style></defs><path class="fa-secondary" d="M0 32L0 480l448 0 0-448L0 32zM64 96l80 0 80 0 80 0 80 0 0 80 0 80 0 80 0 80-80 0-80 0-80 0-80 0 0-80 0-80 0-80 0-80z"/><path class="fa-primary" d="M64 256l0 80h80V256H64zM384 416l0-80H304v80h80zm-240 0h80V336H144v80zM64 96l0 80h80V96H64zm160 80H144v80h80V176zm0 80v80h80V256H224zm160 0V176H304v80h80zM304 96H224v80h80V96z"/></svg>
